svg/u1f9c3.svg

<svg viewBox="0 0 128 128" xmlns="http://www.w3.org/2000/svg">
  <path d="M56.39,48.74L26.22,33.8c0,0-0.07-1.43,1.28-2.15c1.36-0.72,22.74-9.48,24.46-9.48 s11.79,1.94,19.12,3.57c7.33,1.63,26.7,5.79,26.79,7.06c0.09,1.27-19.82,21.63-19.82,21.63L56.39,48.74z" fill="#C3FECE"/>
  <path d="M83.91,39.42c0,0-12.65-3.72-24.96-6.61c-5.73-1.35-22.57-4.88-22.57-4.88s1.79-0.78,3.14-1.35 c1.37-0.57,2.46-0.87,2.46-0.87s10.98,2.19,19.14,3.93c11.04,2.35,26.49,6.96,26.85,7.69C88.34,38.05,83.91,39.42,83.91,39.42z" fill="#FFFFFF"/>
  <path d="M59.41,35.92c-2.69,1.87-0.05,3,4.91,4.16c5.43,1.27,9.57,3.14,13.06,1.11 c3.15-1.82-4.56-3.8-8.1-4.56C66.58,36.05,61.49,34.48,59.41,35.92z" fill="#ACB1B2"/>
  <path d="M69.27,39.68c-0.02,0,0.09-21.91,0.09-22.72s-0.91-1.54,0.09-3.26c1-1.72,3.62-1.54,3.62-1.54 S83.94,9,88.28,7.91s13.94-3.62,13.94-3.62l0.64,5.49c0,0-10.06,2.84-15.04,4.11c-4.98,1.27-11.77,3.35-11.77,3.35l-1,0.91 l0.29,21.41c0,0-0.93,1.04-3.01,1.04C70.31,40.59,69.27,39.68,69.27,39.68z" fill="#FFD816"/>
  <path d="M100.43,7.1c0.08,1.71,0.99,2.77,2.07,2.77c1.08,0,1.82-1.38,1.66-3.18 c-0.17-1.79-1.33-2.61-2.32-2.28C100.85,4.74,100.37,5.85,100.43,7.1z" fill="#FEB804"/>
  <path d="M75.07,18.65c-0.19,0-0.38-0.05-0.55-0.17l-5.19-3.46c-0.46-0.31-0.58-0.93-0.28-1.39 c0.31-0.46,0.92-0.59,1.39-0.28l5.19,3.46c0.46,0.31,0.58,0.93,0.28,1.39C75.71,18.49,75.39,18.65,75.07,18.65z" fill="#FEB804"/>
  <path d="M75.87,17.81c-0.3,0-0.6-0.14-0.8-0.4c-1.33-1.77-2.85-3.78-3.12-4.09 c-0.34-0.33-0.41-0.87-0.14-1.28c0.31-0.46,0.92-0.59,1.39-0.28c0.18,0.12,0.28,0.19,3.47,4.44c0.33,0.44,0.03,1.07-0.41,1.4 C76.08,17.74,76.08,17.81,75.87,17.81z" fill="#FEB804"/>
  <path d="M74.65,19.49c-0.05,0-0.1,0-0.16-0.01l-5-0.79c-0.54-0.09-0.92-0.6-0.83-1.14 c0.09-0.54,0.59-0.92,1.14-0.83l5,0.79c0.54,0.09,1.01,0.19,0.92,0.74C75.65,18.73,75.14,19.49,74.65,19.49z" fill="#FEB804"/>
  <path d="M26.18,33.69c1.59,0,14.35,3.35,20.93,4.56s26.45,5.91,27.12,6.04s0.54,8.73,0.54,8.73 s9.4,48.6,9.13,50.89c-0.27,2.28-6.44,19.87-6.44,19.87s-3.63,0.54-12.89-2.15s-33.7-9.4-35.18-11.28s-0.54-26.72-1.34-42.02 C27.23,53.02,26.18,33.69,26.18,33.69z" fill="#79DD8A"/>
  <path d="M100.27,111.42c0.51-1.69-2.33-19.81-2.73-36.46C97.14,58.32,98.57,33,97.88,32.8 c-0.69-0.19-23.65,11.49-23.65,11.49s-0.1,16.52,0.18,32.1c0.36,20.16,1.97,46.85,3.04,47.39c1.07,0.54,10.36-4.66,13.16-6.18 C95.57,114.91,99.87,112.77,100.27,111.42z" fill="#02AB46"/>
  <polygon points="83.84,51.94 83.89,39.4 88,37.38 88.12,51.13 86.22,54.46 " fill="#DBDFE1"/>
  <path d="M47.45,56.34c-8.88-0.95-15.03,6.97-14.55,17.29c0.57,12.19,8.6,21.17,17.29,22.96 s17.11-1.98,17.29-15.31C67.68,67.39,55.47,57.19,47.45,56.34z" fill="#FEFEFD"/>
  <path d="M53.37,67.47c0,0-1.8-6.05-7.21-4.44c-5.41,1.61-8.34,13.38,0.84,18.68 c8.82,5.09,16.94-4.25,14.1-10.3C58.52,65.89,53.37,67.47,53.37,67.47z" fill="#EF5B44"/>
  <path d="M51.31,60.07c-0.61,0.22-1.09,2.71-0.45,5.09c0.48,1.78,2.01,4.22,2.9,4.06 c0.71-0.13,1.25-2.93,0.58-5.28C53.56,61.23,52.02,59.81,51.31,60.07z" fill="#B8CF17"/>
  <path d="M51.18,74.11c-2.54-0.77-5.4,7.96-0.26,13.4c5.67,5.99,12.29,0.71,12.11-0.45 c-0.26-1.61-4.7-2.77-6.89-5.47C53.95,78.87,52.66,74.56,51.18,74.11z" fill="#FD8F01"/>
  <path d="M43.06,72.63c0,0,0.51-3.82-3.03-3.61c-3.42,0.21-2.58,4.25-2.58,4.25s-2.85,0.34-2.37,3.5 c0.36,2.39,2.88,2.36,2.88,2.36s-2.77,1.09-1.51,4.25c1.12,2.81,3.7,1.68,3.7,1.68s-0.95,2.74,1.29,4.19 c1.89,1.22,3.54,0.19,3.54,0.19s-0.1,2.34,2.51,2.77c3.16,0.52,4.53-3.33,2.28-5.11c-1.71-1.35-3.26-0.3-3.26-0.3 s0.32-0.75,0.02-1.61c-0.2-0.56-0.52-0.77-0.52-0.77s2.77-0.26,2.32-3.41c-0.45-3.16-3.22-2.77-3.22-2.77s1.61-1.29,0.97-3.61 C45.45,72.3,43.06,72.63,43.06,72.63z" fill="#A281D0"/>
  <path d="M86.69,55.43c-2.3,0-12.11-9.75-12.2-9.85c-0.36-0.42-0.31-1.05,0.11-1.41 c0.42-0.36,1.04-0.31,1.41,0.1c0.63,0.7,8.13,7.66,10.29,9c1.4-2.09,5.95-11.24,9.86-19.5c0.24-0.5,0.84-0.71,1.33-0.48 c0.5,0.24,0.71,0.83,0.48,1.33c-9.64,20.37-10.59,20.64-11.1,20.78C86.81,55.43,86.75,55.43,86.69,55.43z" fill="#2D802D"/>
</svg>

<svg viewBox="0 0 128 128" xmlns="http://www.w3.org/2000/svg">
  <defs/>
  <path d="M56.39,48.74 L26.22,33.8 C26.22,33.8 26.15,32.37 27.5,31.65 C28.86,30.93 50.24,22.17 51.96,22.17 C53.68,22.17 63.75,24.11 71.08,25.74 C78.41,27.37 97.78,31.53 97.87,32.8 C97.96,34.07 78.05,54.43 78.05,54.43 L56.39,48.74 Z" fill="#C3FECE"/>
  <path d="M83.91,39.42 C83.91,39.42 71.26,35.7 58.95,32.81 C53.22,31.46 36.38,27.93 36.38,27.93 C36.38,27.93 38.17,27.15 39.52,26.58 C40.89,26.01 41.98,25.71 41.98,25.71 C41.98,25.71 52.96,27.9 61.12,29.64 C72.16,31.99 87.61,36.6 87.97,37.33 C88.34,38.05 83.91,39.42 83.91,39.42 Z" fill="#FFFFFF"/>
  <path d="M59.41,35.92 C56.72,37.79 59.36,38.92 64.32,40.08 C69.75,41.35 73.89,43.22 77.38,41.19 C80.53,39.37 72.82,37.39 69.28,36.63 C66.58,36.05 61.49,34.48 59.41,35.92 Z" fill="#ACB1B2"/>
  <path d="M69.27,39.68 C69.25,39.68 69.36,17.77 69.36,16.96 C69.36,16.15 68.45,15.42 69.45,13.7 C70.45,11.98 73.07,12.16 73.07,12.16 C73.07,12.16 83.94,9 88.28,7.91 C92.62,6.82 102.22,4.29 102.22,4.29 L102.86,9.78 C102.86,9.78 92.8,12.62 87.82,13.89 C82.84,15.16 76.05,17.24 76.05,17.24 L75.05,18.15 L75.34,39.56 C75.34,39.56 74.41,40.6 72.33,40.6 C70.31,40.59 69.27,39.68 69.27,39.68 Z" fill="#FFD816"/>
  <path d="M100.43,7.1 C100.51,8.81 101.42,9.87 102.5,9.87 C103.58,9.87 104.32,8.49 104.16,6.69 C103.99,4.9 102.83,4.08 101.84,4.41 C100.85,4.74 100.37,5.85 100.43,7.1 Z" fill="#FEB804"/>
  <path d="M75.07,18.65 C74.88,18.65 74.69,18.6 74.52,18.48 L69.33,15.02 C68.87,14.71 68.75,14.09 69.05,13.63 C69.36,13.17 69.97,13.04 70.44,13.35 L75.63,16.81 C76.09,17.12 76.21,17.74 75.91,18.2 C75.71,18.49 75.39,18.65 75.07,18.65 Z" fill="#FEB804"/>
  <path d="M75.87,17.81 C75.57,17.81 75.27,17.67 75.07,17.41 C73.74,15.64 72.22,13.63 71.95,13.32 C71.61,12.99 71.54,12.45 71.81,12.04 C72.12,11.58 72.73,11.45 73.2,11.76 C73.38,11.88 73.48,11.95 76.67,16.2 C77,16.64 76.7,17.27 76.26,17.6 C76.08,17.74 76.08,17.81 75.87,17.81 Z" fill="#FEB804"/>
  <path d="M74.65,19.49 C74.6,19.49 74.55,19.49 74.49,19.48 L69.49,18.69 C68.95,18.6 68.57,18.09 68.66,17.55 C68.75,17.01 69.25,16.63 69.8,16.72 L74.8,17.51 C75.34,17.6 75.81,17.7 75.72,18.25 C75.65,18.73 75.14,19.49 74.65,19.49 Z" fill="#FEB804"/>
  <path d="M26.18,33.69 C27.77,33.69 40.53,37.04 47.11,38.25 C53.69,39.46 73.56,44.16 74.23,44.29 C74.9,44.42 74.77,53.02 74.77,53.02 C74.77,53.02 84.17,101.62 83.9,103.91 C83.63,106.19 77.46,123.78 77.46,123.78 C77.46,123.78 73.83,124.32 64.57,121.63 C55.31,118.94 30.87,112.23 29.39,110.35 C27.91,108.47 28.85,83.63 28.05,68.33 C27.23,53.02 26.18,33.69 26.18,33.69 Z" fill="#79DD8A"/>
  <path d="M100.27,111.42 C100.78,109.73 97.94,91.61 97.54,74.96 C97.14,58.32 98.57,33 97.88,32.8 C97.19,32.61 74.23,44.29 74.23,44.29 C74.23,44.29 74.13,60.81 74.41,76.39 C74.77,96.55 76.38,123.24 77.45,123.78 C78.52,124.32 87.81,119.12 90.61,117.6 C95.57,114.91 99.87,112.77 100.27,111.42 Z" fill="#02AB46"/>
  <path d="M83.84,51.94 L83.89,39.4 L88,37.38 L88.12,51.13 L86.22,54.46 Z" fill="#DBDFE1"/>
  <path d="M47.45,56.34 C38.57,55.39 32.42,63.31 32.9,73.63 C33.47,85.82 41.5,94.8 50.19,96.59 C58.88,98.38 67.3,94.61 67.48,81.28 C67.68,67.39 55.47,57.19 47.45,56.34 Z" fill="#FEFEFD"/>
  <path d="M53.37,67.47 C53.37,67.47 51.57,61.42 46.16,63.03 C40.75,64.64 37.82,76.41 47,81.71 C55.82,86.8 63.94,77.46 61.1,71.41 C58.52,65.89 53.37,67.47 53.37,67.47 Z" fill="#EF5B44"/>
  <path d="M51.31,60.07 C50.7,60.29 50.22,62.78 50.86,65.16 C51.34,66.94 52.87,69.38 53.76,69.22 C54.47,69.09 55.01,66.29 54.34,63.94 C53.56,61.23 52.02,59.81 51.31,60.07 Z" fill="#B8CF17"/>
  <path d="M51.18,74.11 C48.64,73.34 45.78,82.07 50.92,87.51 C56.59,93.5 63.21,88.22 63.03,87.06 C62.77,85.45 58.33,84.29 56.14,81.59 C53.95,78.87 52.66,74.56 51.18,74.11 Z" fill="#FD8F01"/>
  <path d="M43.06,72.63 C43.06,72.63 43.57,68.81 40.03,69.02 C36.61,69.23 37.45,73.27 37.45,73.27 C37.45,73.27 34.6,73.61 35.08,76.77 C35.44,79.16 37.96,79.13 37.96,79.13 C37.96,79.13 35.19,80.22 36.45,83.38 C37.57,86.19 40.15,85.06 40.15,85.06 C40.15,85.06 39.2,87.8 41.44,89.25 C43.33,90.47 44.98,89.44 44.98,89.44 C44.98,89.44 44.88,91.78 47.49,92.21 C50.65,92.73 52.02,88.88 49.77,87.1 C48.06,85.75 46.51,86.8 46.51,86.8 C46.51,86.8 46.83,86.05 46.53,85.19 C46.33,84.63 46.01,84.42 46.01,84.42 C46.01,84.42 48.78,84.16 48.33,81.01 C47.88,77.85 45.11,78.24 45.11,78.24 C45.11,78.24 46.72,76.95 46.08,74.63 C45.45,72.3 43.06,72.63 43.06,72.63 Z" fill="#A281D0"/>
  <path d="M86.69,55.43 C84.39,55.43 74.58,45.68 74.49,45.58 C74.13,45.16 74.18,44.53 74.6,44.17 C75.02,43.81 75.64,43.86 76.01,44.27 C76.64,44.97 84.14,51.93 86.3,53.27 C87.7,51.18 92.25,42.03 96.16,33.77 C96.4,33.27 97,33.06 97.49,33.29 C97.99,33.53 98.2,34.12 97.97,34.62 C88.33,54.99 87.38,55.26 86.87,55.4 C86.81,55.43 86.75,55.43 86.69,55.43 Z" fill="#2D802D"/>
</svg>
